X:43
T:Poppy Day Parade
R:Reel
% 32-bar Reels
C:Pete Mac 2003
O:England
Z:Pete Mac Tunebook 2023 (see https://pghardy.net/tunebooks/).
Z:Creative Commons CC0 (Public Domain) licenced.
M:4/4
L:1/8
Q:1/4=210
K:G
G2 A2|"G"B3 A "C"G2 E2|"G"D4 G2 A2|"Em"B3 A G2 E2|"Bm"D4-D4|"G"B3 A B2 c2|d4 c2 B2|"D"A4-A4|"D7"-A4 G2 A2|
"G"B3 A "C"G2 E2|"G"D4 B2 d2|"C"e3 d e2 f2|g4 G2 A2|"Em"B3 A B2 e2|"G"d2 B2 "D7"E2 D2|"G"G4-G4|-G6 d2||
"C"e3 d e2 f2|g4 g2 e2|"G"d3 e d2 B2|d4 G2 A2|"Em"B3 A B2 d2|"Am"e3 d e2 g2|"D"f4-f4|"D7"-f4 G2 A2|
"G"B3 A B2 d2|"C"e3 d e2 f2|"G"g3 a "C"g2 e2|"G"d4 G2 A2|"Em"B3 A B2 e2|"G"d2 B2 "D7"g2 A2|"G"G4-G4|-G4|]

% This tunebook contains tunes written or extended by Pete Mac, who wishes 
% them to be freely used. Pete says: "I play piano accordion, melodeon and 
% English Concertina. I ran a folk dance and barn dance band for 40 years, in 
% Cambridgeshire and then in Devon where I now live. % I wrote these tunes for 
% use in the bands, and am pleased if others play them. I still lead bands and 
% workshops occasionally, mostly in the Camping and Caravanning Club 'Folk 
% Group' which has been a lifetime involvement, and of which I am a founder 
% member."  
% The tunes (written between 1988 and 2006) are released under a Creative 
% Commons Zero licence - CC0 1.0. To view a copy of this license, visit 
% http://creativecommons.org/publicdomain/zero/1.0. 
% Through this licence, the author has dedicated the work to the public domain 
% by waiving all of his rights worldwide under copyright law, including all 
% related and neighboring rights, to the extent allowed by law.  
% You can copy, modify, distribute and perform these tunes, even for 
% commercial purposes, all without asking permission. 
% Editing, layout and publishing of this Tunebook and its ABC music is by Paul 
% Hardy (paul@paulhardy.net), who releases his assistance work under the same 
% CC0 1.0 licence. See https://pghardy.net/tunebooks/ for downloads of this 
% and more of Paul's tunebooks.
% Original tunebook of 19 October 2023. This version of 8 November 2023.